X: 42457
T: Westphalia, The
R: waltz
M: 3/4
K: Gmajor
|:D/ E>F|G4 A2|B4 e2|d4- d>e|d2- d>D E>F|
G4 A2|B4 c2|A4- A>B|A4 G2|
F4 A2|c4 g2|f2- f>A f>g|f4 (3gfe|
[1 d2- d>d- d>A|e2 d2 c2|B4- B>c|B2- B3/2:|
[2 d2- d>d- d>d|c2 F2 A2|G2 G>F G>A|G2- G3/2||
|:B/ d>G|g2- g>g- g>A|f2- f>f- f>A|e2 f>A g2|B4- B>G|
B2 A2 G2|B2 A2 G2|c2 c>B c>d|c4- c>A|
e2 e>e e>A|e2 e>e e>A|e2 f2 g2|f2- f>A f>e|
[1 d2- d>d- d>A|e2 d2 c2|B4- B>c|B2- B3/2:|
[2 d2- d>d- d>d|c2 B2 A2|G2 G>F G>A|G2- G3/2||

